Sources/FrostedUI/Resources/Icons.xcassets/table12.imageset/table-12.svg

<svg width="12" height="12" viewBox="0 0 12 12" fill="none" xmlns="http://www.w3.org/2000/svg" data-fui-icon="true">
  <g clip-path="url(#clip0_3952_77)">
    <path
      d="M9.83984 0C11.0328 0 12 0.967221 12 2.16016V3.94434C12.1525 4.08162 12.25 4.27868 12.25 4.5C12.25 4.72108 12.1522 4.91742 12 5.05469V9.83984C12 11.0328 11.0328 12 9.83984 12H2.16016C0.967221 12 0 11.0328 0 9.83984V5.05469C-0.152182 4.91742 -0.25 4.72108 -0.25 4.5C-0.25 4.27868 -0.152465 4.08162 0 3.94434V2.16016C0 0.967221 0.967221 0 2.16016 0H9.83984ZM5.25 10.5H9.83984C10.2044 10.5 10.5 10.2044 10.5 9.83984V5.25H5.25V10.5ZM1.5 9.83984C1.5 10.2044 1.79565 10.5 2.16016 10.5H3.75V5.25H1.5V9.83984ZM5.25 3.75H10.5V2.16016C10.5 1.79565 10.2044 1.5 9.83984 1.5H5.25V3.75ZM2.16016 1.5C1.79565 1.5 1.5 1.79565 1.5 2.16016V3.75H3.75V1.5H2.16016Z"
      fill="currentColor"
    />
  </g>
  <defs>
    <clipPath id="clip0_3952_77"><path fill="currentColor" d="M0 0H12V12H0z" /></clipPath>
  </defs>
</svg>

<svg xmlns="http://www.w3.org/2000/svg" width="12" height="12" fill="none" data-fui-icon="true" viewBox="0 0 12 12"><g clip-path="url(#a)"><path fill="currentColor" d="M9.84 0A2.16 2.16 0 0 1 12 2.16v1.784a.745.745 0 0 1 0 1.11V9.84A2.16 2.16 0 0 1 9.84 12H2.16A2.16 2.16 0 0 1 0 9.84V5.055a.745.745 0 0 1 0-1.11V2.16A2.16 2.16 0 0 1 2.16 0zM5.25 10.5h4.59a.66.66 0 0 0 .66-.66V5.25H5.25zM1.5 9.84c0 .364.296.66.66.66h1.59V5.25H1.5zm3.75-6.09h5.25V2.16a.66.66 0 0 0-.66-.66H5.25zM2.16 1.5a.66.66 0 0 0-.66.66v1.59h2.25V1.5z"/></g><defs><clipPath id="a"><path fill="currentColor" d="M0 0h12v12H0z"/></clipPath></defs></svg>
